Obsidian/actions/16s/view-calendar-timeline.svg

<svg height="16" viewBox="0 0 16 16" width="16" xmlns="http://www.w3.org/2000/svg"><path d="m3 1c-2.25 0-2 2-2 2v12h14v-12c0-2-2-2-2-2zm0 2h10v4h-6v2h6v4h-10v-2.5-4.5h4v-2h-4zm2 7v2h4v-2z" fill="#bebebe"/></svg>

<svg xmlns="http://www.w3.org/2000/svg" width="16" height="16" viewBox="0 0 16 16">
 <defs>
  <style id="current-color-scheme" type="text/css">
   .ColorScheme-Text { color:#bebebe; } .ColorScheme-Highlight { color:#4285f4; }
  </style>
 </defs>
 <path style="fill:currentColor" class="ColorScheme-Text" d="M 3 1 C 0.75 1 1 3 1 3 L 1 15 L 15 15 L 15 3 C 15 1 13 1 13 1 L 3 1 z M 3 3 L 13 3 L 13 7 L 7 7 L 7 9 L 13 9 L 13 13 L 3 13 L 3 10.5 L 3 6 L 7 6 L 7 4 L 3 4 L 3 3 z M 5 10 L 5 12 L 9 12 L 9 10 L 5 10 z"/>
</svg>
